Obsidian-SemiLight/actions/24s/player-time.svg

<svg viewBox="0 0 24 24" xmlns="http://www.w3.org/2000/svg"><path d="m7.8769531 4c-1.6644333.8561715-3.0207816 2.2125198-3.8769531 3.8769531v.1230469l.921875.3066406c.7546036-1.4498945 1.9348711-2.630162 3.3847656-3.3847656l-.3066406-.921875zm8.1289059 0-.30664.921875c1.44989.75461 2.630155 1.9348756 3.384765 3.3847656l.921875-.3066406v-.1230469c-.85617-1.66443-2.212523-3.0207831-3.876953-3.8769531zm-4.005859 2c-3.8779952 0-7 3.1220048-7 7 0 3.877995 3.1220048 7 7 7 3.877995 0 7-3.122005 7-7 0-3.8779952-3.122005-7-7-7zm0 1c3.323996 0 6 2.676004 6 6s-2.676004 6-6 6-6-2.676004-6-6 2.676004-6 6-6zm-2 3v6l5-3z" fill="#4d4d4d"/></svg>

<svg xmlns="http://www.w3.org/2000/svg" viewBox="0 0 24 24">
  <defs id="defs3051">
    <style type="text/css" id="current-color-scheme">
      .ColorScheme-Text {
        color:#4d4d4d;
      }
      </style>
  </defs>
 <path style="fill:currentColor;fill-opacity:1;stroke:none" 
     d="M 7.8769531 4 C 6.2125198 4.8561715 4.8561715 6.2125198 4 7.8769531 L 4 8 L 4.921875 8.3066406 C 5.6764786 6.8567461 6.8567461 5.6764786 8.3066406 4.921875 L 8 4 L 7.8769531 4 z M 16.005859 4 L 15.699219 4.921875 C 17.149109 5.676485 18.329374 6.8567506 19.083984 8.3066406 L 20.005859 8 L 20.005859 7.8769531 C 19.149689 6.2125231 17.793336 4.85617 16.128906 4 L 16.005859 4 z M 12 6 C 8.1220048 6 5 9.1220048 5 13 C 5 16.877995 8.1220048 20 12 20 C 15.877995 20 19 16.877995 19 13 C 19 9.1220048 15.877995 6 12 6 z M 12 7 C 15.323996 7 18 9.676004 18 13 C 18 16.323996 15.323996 19 12 19 C 8.676004 19 6 16.323996 6 13 C 6 9.676004 8.676004 7 12 7 z M 10 10 L 10 16 L 15 13 L 10 10 z "
     class="ColorScheme-Text"
     />
</svg>
